app/assets/img/ic-homelessness-essentials.svg

<svg height="250" viewBox="0 0 250 250" width="250" xmlns="http://www.w3.org/2000/svg"><g fill="none" fill-rule="evenodd"><path d="m0 0h250v250h-250z"/><path d="m82.1122995 180.456471c14.8245989 0 26.7914435-11.907083 26.7914435-26.657647 0-14.750565-11.9668446-26.657648-26.7914435-26.657648-14.824599 0-26.7914439 11.907083-26.7914439 26.657648 0 14.750564 11.9668449 26.657647 26.7914439 26.657647zm-6.8449198-135.7505886h-39.5721925v171.2941176h-10.6951872v-182h5.3475936 58.28877 40.1069524v10.7058824c-1.710116 14.2745098-7.275884 21.4117647-16.697304 21.4117647-.080307 0-12.3398511 0-36.7786323 0zm114.0106953 82.4352936c19.736364 0 35.721925 15.90573 35.721925 35.54353v53.315294h-178.6096257v-26.657647h71.4438507v-62.201177zm-118.6965341-57.8088517 8.9697387 5.8250164-11.6616829 17.9574169-8.9697387-5.8250165zm22.867657 7.4912051h10.6951871v21.4117647h-10.6951871zm24.5931051-1.6661887 8.969739-5.8250164 11.661683 17.9574168-8.969739 5.8250165z" fill="#000" fill-rule="nonzero"/></g></svg>

<svg xmlns="http://www.w3.org/2000/svg" width="250" height="250" viewBox="0 0 250 250">
  <g fill="none" fill-rule="evenodd">
    <polygon points="0 0 250 0 250 250 0 250"/>
    <path fill="#000000" fill-rule="nonzero" d="M82.1122995,180.456471 C96.9368984,180.456471 108.903743,168.549388 108.903743,153.798824 C108.903743,139.048259 96.9368984,127.141176 82.1122995,127.141176 C67.2877005,127.141176 55.3208556,139.048259 55.3208556,153.798824 C55.3208556,168.549388 67.2877005,180.456471 82.1122995,180.456471 Z M75.2673797,44.7058824 L35.6951872,44.7058824 L35.6951872,216 L25,216 L25,34 L30.3475936,34 L88.6363636,34 L128.743316,34 L128.743316,44.7058824 C127.0332,58.9803922 121.467432,66.1176471 112.046012,66.1176471 C111.965705,66.1176471 99.7061609,66.1176471 75.2673797,66.1176471 L75.2673797,44.7058824 Z M189.278075,127.141176 C209.014439,127.141176 225,143.046906 225,162.684706 L225,216 L46.3903743,216 L46.3903743,189.342353 L117.834225,189.342353 L117.834225,127.141176 L189.278075,127.141176 Z M70.5815409,69.3323243 L79.5512796,75.1573407 L67.8895967,93.1147576 L58.919858,87.2897411 L70.5815409,69.3323243 Z M93.4491979,76.8235294 L104.144385,76.8235294 L104.144385,98.2352941 L93.4491979,98.2352941 L93.4491979,76.8235294 Z M118.042303,75.1573407 L127.012042,69.3323243 L138.673725,87.2897411 L129.703986,93.1147576 L118.042303,75.1573407 Z"/>
  </g>
</svg>
